src/assets/selectIconsSpells/fuoco_4.svg

<svg xmlns="http://www.w3.org/2000/svg" viewBox="0 0 512 512"><path d="M0 0h512v512H0z"/><path fill="#fff" d="M30.936 23.332c-.97 100.412 10.37 192.13 100.757 231.064 109.81 47.303 46.883 118.85-58.246 83.002 76.11 65.222 145.665 141.652 200.928 159.985 6.78 2.995 14.26 4.674 22.12 4.674 11.404 0 22.023-3.508 30.835-9.495 31.55 8.544 59.065 11.345 82.4 9.23 19.94-.195 38.412-6.676 53.524-17.556 49.986-33.49 55.46-109.83 11.715-201.34 1.573-8.565 1.077-16.997-1.154-25.322-1.973-9.506-6.227-18.195-12.152-25.476-28.97-42.765-97.358-83.18-159.58-124.506 77.79 99.205 67.214 143.1 10.635 94.234 1.09-7.624-1.225-15.174-6.103-23.178-1.8-3.4-4.032-6.54-6.625-9.343-17.988-22.57-52.22-49.85-87.02-92.078 38.056 186.15-97.83 83.32-182.036-53.895zM267.79 173.836c14.032 0 25.208 11.176 25.208 25.21 0 14.032-11.175 25.208-25.21 25.208-14.032 0-25.208-11.176-25.208-25.21 0-14.032 11.175-25.208 25.21-25.208zm147.575 54.834c22.756 0 41.004 18.248 41.004 41.004 0 22.756-18.248 41.004-41.005 41.004-5.145 0-10.056-.942-14.582-2.65-.746-19.392-10.64-36.512-25.476-47.16 3.997-18.478 20.328-32.198 40.058-32.198zm-75.45 39.473c23.44 0 42.24 18.802 42.24 42.242 0 23.44-18.8 42.242-42.24 42.242s-42.243-18.802-42.243-42.242c0-23.44 18.8-42.242 42.242-42.242zm68.886 65.464c41.396 0 74.755 33.36 74.755 74.754 0 41.397-33.357 74.755-74.754 74.755-23.397 0-44.22-10.662-57.91-27.404.458-2.85.704-5.772.704-8.75 0-15.814-6.752-30.113-17.506-40.183.268-12.963 3.804-25.092 9.828-35.61 23.163-1.518 42.872-16.092 51.803-36.403 4.247-.746 8.613-1.157 13.08-1.157zm-145.53 10.59c12.626 0 22.662 10.038 22.662 22.664 0 12.628-10.035 22.663-22.662 22.663-12.627 0-22.663-10.035-22.663-22.662 0-12.625 10.035-22.663 22.663-22.663zm33.226 66.35c20.22 0 36.414 16.194 36.414 36.414 0 20.222-16.192 36.413-36.414 36.413-20.22 0-36.412-16.192-36.412-36.412s16.19-36.413 36.412-36.413z"/></svg>

<?xml version="1.0" encoding="UTF-8" standalone="no"?>
<!DOCTYPE svg PUBLIC "-//W3C//DTD SVG 1.1//EN" "http://www.w3.org/Graphics/SVG/1.1/DTD/svg11.dtd">
<svg width="100%" height="100%" viewBox="0 0 512 512" version="1.1" xmlns="http://www.w3.org/2000/svg" xmlns:xlink="http://www.w3.org/1999/xlink" xml:space="preserve" xmlns:serif="http://www.serif.com/" style="fill-rule:evenodd;clip-rule:evenodd;stroke-linejoin:round;stroke-miterlimit:2;">
    <rect x="0" y="0" width="512" height="512" style="fill-rule:nonzero;"/>
    <path d="M30.936,23.332C29.966,123.744 41.306,215.462 131.693,254.396C241.503,301.699 178.576,373.246 73.447,337.398C149.557,402.62 219.112,479.05 274.375,497.383C281.155,500.378 288.635,502.057 296.495,502.057C307.899,502.057 318.518,498.549 327.33,492.562C358.88,501.106 386.395,503.907 409.73,501.792C429.67,501.597 448.142,495.116 463.254,484.236C513.24,450.746 518.714,374.406 474.969,282.896C476.542,274.331 476.046,265.899 473.815,257.574C471.842,248.068 467.588,239.379 461.663,232.098C432.693,189.333 364.305,148.918 302.083,107.592C379.873,206.797 369.297,250.692 312.718,201.826C313.808,194.202 311.493,186.652 306.615,178.648C304.815,175.248 302.583,172.108 299.99,169.305C282.002,146.735 247.77,119.455 212.97,77.227C251.026,263.377 115.14,160.547 30.934,23.332L30.936,23.332ZM267.79,173.836C281.822,173.836 292.998,185.012 292.998,199.046C292.998,213.078 281.823,224.254 267.788,224.254C253.756,224.254 242.58,213.078 242.58,199.044C242.58,185.012 253.755,173.836 267.79,173.836ZM415.365,228.67C438.121,228.67 456.369,246.918 456.369,269.674C456.369,292.43 438.121,310.678 415.364,310.678C410.219,310.678 405.308,309.736 400.782,308.028C400.036,288.636 390.142,271.516 375.306,260.868C379.303,242.39 395.634,228.67 415.364,228.67L415.365,228.67ZM339.915,268.143C363.355,268.143 382.155,286.945 382.155,310.385C382.155,333.825 363.355,352.627 339.915,352.627C316.475,352.627 297.672,333.825 297.672,310.385C297.672,286.945 316.472,268.143 339.914,268.143L339.915,268.143ZM408.801,333.607C450.197,333.607 483.556,366.967 483.556,408.361C483.556,449.758 450.199,483.116 408.802,483.116C385.405,483.116 364.582,472.454 350.892,455.712C351.35,452.862 351.596,449.94 351.596,446.962C351.596,431.148 344.844,416.849 334.09,406.779C334.358,393.816 337.894,381.687 343.918,371.169C367.081,369.651 386.79,355.077 395.721,334.766C399.968,334.02 404.334,333.609 408.801,333.609L408.801,333.607ZM263.271,344.197C275.897,344.197 285.933,354.235 285.933,366.861C285.933,379.489 275.898,389.524 263.271,389.524C250.644,389.524 240.608,379.489 240.608,366.862C240.608,354.237 250.643,344.199 263.271,344.199L263.271,344.197ZM296.497,410.547C316.717,410.547 332.911,426.741 332.911,446.961C332.911,467.183 316.719,483.374 296.497,483.374C276.277,483.374 260.085,467.182 260.085,446.962C260.085,426.742 276.275,410.549 296.497,410.549L296.497,410.547Z" style="fill:url(#_Linear1);fill-rule:nonzero;"/>
    <defs>
        <linearGradient id="_Linear1" x1="0" y1="0" x2="1" y2="0" gradientUnits="userSpaceOnUse" gradientTransform="matrix(473.673,0,0,479.134,30.8822,262.899)"><stop offset="0" style="stop-color:rgb(228,29,29);stop-opacity:1"/><stop offset="1" style="stop-color:rgb(248,127,79);stop-opacity:1"/></linearGradient>
    </defs>
</svg>
